X: 07080
T: MILO'S HORNPIPE
C: Bob McQuillen 6 July 84
B: Bob's Note Book 7 #80
%R: hornpipe, reel
Z: 2020 John Chambers <jc:trillian.mit.edu>
M: C
L: 1/8
K: D
FG \
| ABAG FDFA | d2de f2ed | BdAB dfdB | AdAF E2FG |
| ABAG FDFA | d2de f2fe | dfed BAdf | afef d2 :|
|: fg \
| abag fdfg | a2ag f2fg | a2ba gfdB | ABdf e2fg |
| a2ag fdfg | abag f2a2 | bagf geag | f2d2 d2 :|
%%begintext align
%% When we were in
%% Port Townsend on the West Coast for Fiddle
%% Tunes this summer, we enjoyed our meals in
%% Milo's dining room. He and his crew sure worked
%% hard for us - Delicious salmon AND oysters one
%% night!
%%endtext

%%sep 1 1 500

%%sep 1 1 500

